X:2713
T:Humours of Scarrif, The
O:england
R:reel
D:Bothy Band: Old Hag, You've Killed Me
D:Oisin: Over the Moor to Maggie
M:C|
K:Ddor
d3e f2ed|cAGc AcGc|Acde (3fgf ed|cAGE EGD2:|
|:e2ge aege|eg~g2 ea~a2|1 e2ge aege|edcd edcd:|2 ~a3^f ~g3e|dcAG EGD2||


